modules/hawcons-stroke/icons/icon-70-document-code.svg

<?xml version="1.0" encoding="UTF-8" standalone="no"?>
<svg width="32px" height="32px" viewBox="0 0 32 32" version="1.1" xmlns="http://www.w3.org/2000/svg" xmlns:xlink="http://www.w3.org/1999/xlink" xmlns:sketch="http://www.bohemiancoding.com/sketch/ns">
    <!-- Generator: Sketch 3.0.3 (7891) - http://www.bohemiancoding.com/sketch -->
    <title>icon 70 document code</title>
    <desc>Created with Sketch.</desc>
    <defs></defs>
    <g id="Page-1" stroke="none" stroke-width="1" fill="none" fill-rule="evenodd" sketch:type="MSPage">
        <g id="icon-70-document-code" sketch:type="MSArtboardGroup" fill="#929292">
            <path d="M19.5,3 L9.00276013,3 C7.89666625,3 7,3.89833832 7,5.00732994 L7,27.9926701 C7,29.1012878 7.89092539,30 8.99742191,30 L24.0025781,30 C25.1057238,30 26,29.1017876 26,28.0092049 L26,10.5 L26,10 L20,3 L19.5,3 L19.5,3 L19.5,3 Z M19,4 L8.9955775,4 C8.44573523,4 8,4.45526288 8,4.99545703 L8,28.004543 C8,28.5543187 8.45470893,29 8.9999602,29 L24.0000398,29 C24.5523026,29 25,28.5550537 25,28.0066023 L25,11 L20.9979131,11 C19.8944962,11 19,10.1134452 19,8.99408095 L19,4 L19,4 Z M20,4.5 L20,8.99121523 C20,9.54835167 20.4506511,10 20.9967388,10 L24.6999512,10 L20,4.5 L20,4.5 Z M17,18 L15,26 L16,26 L18,18 L17,18 L17,18 Z M13,25 L10,22 L13,19 L13.6999998,19.6999998 L11.3999996,22 L13.6999998,24.3000002 L13,25 L13,25 Z M20,25 L23,22 L20,19 L19.3000002,19.6999998 L21.6000004,22 L19.3000002,24.3000002 L20,25 L20,25 Z" id="document-code" sketch:type="MSShapeGroup"></path>
        </g>
    </g>
</svg>

<svg width="32" height="32" xmlns="http://www.w3.org/2000/svg"><path d="M19.5 3H9.003A2.005 2.005 0 0 0 7 5.007v22.986A2 2 0 0 0 8.997 30h15.006A1.999 1.999 0 0 0 26 28.01V10l-6-7h-.5zM19 4H8.996C8.446 4 8 4.455 8 4.995v23.01c0 .55.455.995 1 .995h15c.552 0 1-.445 1-.993V11h-4.002A1.995 1.995 0 0 1 19 8.994V4zm1 .5v4.491c0 .557.45 1.009.997 1.009H24.7L20 4.5zM17 18l-2 8h1l2-8h-1zm-4 7l-3-3 3-3 .7.7-2.3 2.3 2.3 2.3-.7.7zm7 0l3-3-3-3-.7.7 2.3 2.3-2.3 2.3.7.7z" fill="#929292" fill-rule="evenodd"/></svg>
